dist/img/companies/alfa-bank.svg

<svg width="178" height="62" viewBox="0 0 178 62" fill="none" xmlns="http://www.w3.org/2000/svg">
<g opacity="1" clip-path="url(#clip0_2_1181)">
<path d="M20.0943 -0.000713348C24.3536 -0.000713348 25.6919 3.02556 26.8148 6.04709C27.2865 7.33018 38.3547 37.3558 38.6875 38.257C38.7761 38.5084 38.7163 38.9211 38.326 39.0705C37.9334 39.2176 32.1825 41.4327 31.8641 41.5513C31.5457 41.6722 31.189 41.4967 31.074 41.1813C30.9543 40.8706 28.5673 34.3248 28.2992 33.5943H11.8943C11.6357 34.3248 9.21998 40.8848 9.11224 41.1813C9.00211 41.4825 8.65974 41.6865 8.31977 41.5513C7.97979 41.4185 2.20743 39.2033 1.86267 39.0705C1.53227 38.9424 1.38144 38.5701 1.49636 38.257C1.90337 37.1328 12.8041 7.58869 13.3595 6.04709C14.4417 3.07062 15.8255 -0.000713348 20.0943 -0.000713348ZM0.620092 53.7252C0.27533 53.7252 0 54.0098 0 54.356V61.3739C0 61.7201 0.27533 62 0.620092 62H39.5518C39.9038 62 40.1791 61.7201 40.1791 61.3739V54.356C40.1791 54.0098 39.9038 53.7252 39.5518 53.7252H0.620092ZM20.056 9.80385L14.5111 26.299H25.6919L20.1279 9.80385H20.056ZM103.261 36.8506C102.444 37.1233 101.906 37.1898 101.264 37.1898C99.9378 37.1898 99.2028 36.6704 99.2028 35.3232C99.2028 33.9192 100.137 33.4496 101.97 33.4496C102.418 33.4496 102.859 33.5136 103.065 33.5848V34.5904C103.065 35.6742 103.124 36.3857 103.261 36.8506ZM107.975 38.4586C106.996 36.9858 106.74 36.1177 106.74 34.2607V30.4897C106.74 28.4596 106.5 27.7267 105.959 26.9867C105.205 25.9385 103.948 25.4831 101.638 25.4831C100.002 25.4831 98.4151 25.6586 96.878 26.0476L97.4335 28.7276C98.4726 28.5829 99.5619 28.4596 100.33 28.4596C102.784 28.4596 103.065 28.8106 103.065 30.6344V31.3151C102.519 31.1704 101.906 31.066 101.195 31.066C97.5005 31.066 95.5493 32.8567 95.5493 35.8213C95.5493 38.6009 97.6346 40.1164 100.175 40.1164C101.123 40.1164 102.114 39.9433 102.899 39.6255C103.373 39.4215 103.579 39.3006 104.192 38.9069C104.561 39.4381 105.301 39.9812 105.602 40.0832L107.975 38.4586ZM144.517 36.8506C143.696 37.1233 143.167 37.1898 142.521 37.1898C141.189 37.1898 140.445 36.6704 140.445 35.3232C140.445 33.9192 141.391 33.4496 143.229 33.4496C143.677 33.4496 144.12 33.5136 144.321 33.5848V34.5904C144.321 35.6742 144.379 36.3857 144.517 36.8506ZM149.236 38.4586C148.25 36.9858 147.999 36.1177 147.999 34.2607V30.4897C147.999 28.4596 147.754 27.7267 147.208 26.9867C146.464 25.9385 145.205 25.4831 142.887 25.4831C141.254 25.4831 139.657 25.6586 138.12 26.0476L138.668 28.7276C139.71 28.5829 140.802 28.4596 141.592 28.4596C144.031 28.4596 144.321 28.8106 144.321 30.6344V31.3151C143.775 31.1704 143.167 31.066 142.442 31.066C138.743 31.066 136.784 32.8567 136.784 35.8213C136.784 38.6009 138.874 40.1164 141.427 40.1164C142.387 40.1164 143.368 39.9433 144.146 39.6255C144.628 39.4215 144.826 39.3006 145.439 38.9069C145.813 39.4381 146.552 39.9812 146.857 40.0832L149.236 38.4586ZM178 39.801C178 39.801 175.975 35.5248 175.479 34.5524C174.921 33.4567 174.404 32.7001 173.264 32.4274V32.3657C174.028 32.2211 174.636 31.7633 175.302 30.364C175.931 29.0003 176.118 28.7062 176.489 28.3813C176.853 28.0587 177.351 28.175 177.351 28.175L177.538 25.6539C177.009 25.5827 176.422 25.5803 175.816 25.6135C174.811 25.6728 174.291 25.9598 173.796 26.4531C173.408 26.8302 173.145 27.3947 172.819 28.0421C172.474 28.7489 172.201 29.3181 171.842 30.0367C171.485 30.7743 171.318 31.1064 170.358 31.1064H169.733V19.9381H166.034V39.801H169.733V34.09L170.238 34.0805C171.299 34.0805 171.485 34.3437 172.046 35.4513C172.702 36.7723 173.959 39.801 173.959 39.801H178ZM73.7958 39.801H78.0646L71.6075 20.2701C70.9275 20.0448 70.0872 19.9049 69.1894 19.9049C68.2101 19.9049 67.8606 20.0329 67.0945 20.2701L60.2615 39.801H64.3579C64.3579 39.801 64.911 38.0886 65.5622 35.966H72.6394C73.2714 38.0863 73.7958 39.801 73.7958 39.801ZM66.6012 32.6907C66.6012 32.6907 67.784 28.7703 67.9683 28.1607C68.4376 26.5812 69.1511 24.0719 69.1511 24.0719H69.2684C69.2684 24.0719 69.9292 26.6713 70.3601 28.1323C70.5229 28.7133 71.653 32.6907 71.653 32.6907H66.6012ZM114.277 30.4565C112.972 30.4565 111.911 31.5119 111.911 32.8045C111.911 34.1066 112.972 35.1548 114.277 35.1548C115.584 35.1548 116.64 34.1066 116.64 32.8045C116.64 31.5119 115.584 30.4565 114.277 30.4565ZM83.1331 19.9381H79.4245V39.7986H83.1331V19.9381ZM156.814 28.6398C158.863 28.6825 159.117 29.1023 159.117 30.8052V39.801H162.792V30.4897C162.792 28.4596 162.553 27.7267 162.007 26.9867C161.253 25.9385 159.771 25.4831 157.264 25.4831C154.784 25.4831 153.203 25.744 151.171 26.344V39.801H154.884V28.8106C155.859 28.6706 156.031 28.6398 156.814 28.6398ZM92.3052 19.5847C89.9876 19.5847 88.7259 20.0401 87.9837 21.086C87.4378 21.8283 87.196 22.5778 87.196 24.6127V26.344H85.3549V29.3134H87.196V39.801H90.8734L90.8639 29.3134H94.5294V26.344H90.8639L90.8734 24.7526C90.8734 22.9312 91.1535 22.5778 93.61 22.5778C93.8757 22.5778 94.175 22.592 94.4934 22.6157L95.0728 19.7626C94.1654 19.644 93.2365 19.5847 92.3052 19.5847ZM121.811 19.7697C123.073 19.6962 125.893 19.5918 127.662 19.5918C127.986 19.5918 128.321 19.5942 128.656 19.6108C132.135 19.6108 134.129 22.12 134.129 25.0657C134.129 27.0698 133.202 28.4003 131.031 29.1924C133.586 29.7521 134.924 31.7278 134.924 34.1445C134.924 35.9185 134.419 37.3273 133.492 38.2878C132.29 39.4595 130.471 40.1164 128.048 40.1164C125.893 40.1164 123.188 40.05 121.811 39.9694V19.7697ZM127.662 23.0237C127.049 23.0237 126.291 23.0355 125.539 23.0616V27.8311H127.665C128.508 27.8311 129.185 27.5986 129.647 27.1504C130.088 26.7282 130.318 26.1306 130.318 25.4214C130.318 23.8964 129.484 23.0331 127.935 23.0237H127.662ZM127.739 36.6917H127.899C129.831 36.6917 131.014 35.6742 131.029 33.6251C131.009 32.8899 130.725 32.2116 130.215 31.7206C129.657 31.1657 128.867 30.8763 127.94 30.8763H125.539V36.6704C126.216 36.6846 126.963 36.687 127.739 36.6917Z" fill="#ee2a23"/>
</g>
<defs>
<clipPath id="clip0_2_1181">
<rect width="178" height="62" fill="white"/>
</clipPath>
</defs>
</svg>

<svg width="178" height="62" fill="none" xmlns="http://www.w3.org/2000/svg"><g clip-path="url(#clip0_2_1181)"><path d="M20.094 0c4.26 0 5.598 3.026 6.72 6.047l11.873 32.21c.09.251.03.664-.361.814-.393.147-6.144 2.362-6.462 2.48a.617.617 0 01-.79-.37c-.12-.31-2.507-6.856-2.775-7.587H11.894c-.258.73-2.674 7.29-2.782 7.587-.11.302-.452.506-.792.37-.34-.133-6.113-2.348-6.457-2.48a.64.64 0 01-.367-.814c.407-1.124 11.308-30.668 11.864-32.21C14.442 3.071 15.826 0 20.093 0zM.62 53.724a.625.625 0 00-.62.631v7.018c0 .346.275.626.62.626h38.932c.352 0 .627-.28.627-.626v-7.018a.627.627 0 00-.627-.63H.62zm19.436-43.92l-5.545 16.495h11.18L20.129 9.804h-.072zm83.205 27.047c-.817.272-1.355.339-1.997.339-1.326 0-2.061-.52-2.061-1.867 0-1.404.934-1.873 2.767-1.873.448 0 .889.064 1.095.135v1.005c0 1.084.059 1.796.196 2.26zm4.714 1.608c-.979-1.473-1.235-2.341-1.235-4.198V30.49c0-2.03-.24-2.763-.781-3.503-.754-1.048-2.011-1.504-4.321-1.504-1.636 0-3.223.176-4.76.565l.555 2.68c1.04-.145 2.129-.268 2.897-.268 2.454 0 2.735.35 2.735 2.174v.681a7.188 7.188 0 00-1.87-.249c-3.694 0-5.646 1.79-5.646 4.755 0 2.78 2.086 4.295 4.626 4.295.948 0 1.939-.173 2.724-.49.474-.204.68-.325 1.293-.72.369.532 1.109 1.075 1.41 1.177l2.373-1.624zm36.542-1.608c-.821.272-1.35.339-1.996.339-1.332 0-2.076-.52-2.076-1.867 0-1.404.946-1.873 2.784-1.873.448 0 .891.064 1.092.135v1.005c0 1.084.058 1.796.196 2.26zm4.719 1.608c-.986-1.473-1.237-2.341-1.237-4.198V30.49c0-2.03-.245-2.763-.791-3.503-.744-1.048-2.003-1.504-4.321-1.504-1.633 0-3.23.176-4.767.565l.548 2.68c1.042-.145 2.134-.268 2.924-.268 2.439 0 2.729.35 2.729 2.174v.681a7.176 7.176 0 00-1.879-.249c-3.699 0-5.658 1.79-5.658 4.755 0 2.78 2.09 4.295 4.643 4.295.96 0 1.941-.173 2.719-.49.482-.204.68-.325 1.293-.72.374.532 1.113 1.075 1.418 1.177l2.379-1.624zM178 39.8s-2.025-4.276-2.521-5.249c-.558-1.095-1.075-1.852-2.215-2.125v-.061c.764-.145 1.372-.603 2.038-2.002.629-1.364.816-1.658 1.187-1.983.364-.322.862-.206.862-.206l.187-2.521c-.529-.071-1.116-.074-1.722-.04-1.005.059-1.525.346-2.02.84-.388.376-.651.94-.977 1.588-.345.707-.618 1.276-.977 1.995-.357.737-.524 1.07-1.484 1.07h-.625V19.937h-3.699V39.8h3.699v-5.71l.505-.01c1.061 0 1.247.264 1.808 1.371.656 1.321 1.913 4.35 1.913 4.35H178zm-104.204 0h4.269l-6.457-19.53a7.833 7.833 0 00-2.419-.366c-.979 0-1.328.128-2.094.365L60.26 39.801h4.097s.553-1.712 1.204-3.835h7.077c.632 2.12 1.157 3.835 1.157 3.835zm-7.195-7.11l1.367-4.53c.47-1.58 1.183-4.09 1.183-4.09h.117s.661 2.6 1.092 4.061c.163.581 1.293 4.559 1.293 4.559h-5.052zm47.676-2.235a2.36 2.36 0 00-2.366 2.348 2.357 2.357 0 002.366 2.35 2.353 2.353 0 002.363-2.35 2.357 2.357 0 00-2.363-2.348zM83.133 19.938h-3.709v19.86h3.71v-19.86zm73.681 8.702c2.049.043 2.303.462 2.303 2.165v8.996h3.675V30.49c0-2.03-.239-2.763-.785-3.503-.754-1.048-2.236-1.504-4.743-1.504-2.48 0-4.061.261-6.093.861v13.457h3.713v-10.99c.975-.14 1.147-.171 1.93-.171zm-64.509-9.055c-2.317 0-3.58.455-4.321 1.501-.546.742-.788 1.492-.788 3.527v1.731h-1.841v2.97h1.841V39.8h3.677l-.01-10.488h3.666v-2.969h-3.665l.01-1.591c0-1.822.28-2.175 2.736-2.175.266 0 .565.014.883.038l.58-2.853a21.406 21.406 0 00-2.768-.178zm29.506.185a127.27 127.27 0 015.851-.178c.324 0 .659.002.994.019 3.479 0 5.473 2.509 5.473 5.455 0 2.004-.927 3.334-3.098 4.126 2.555.56 3.893 2.536 3.893 4.953 0 1.773-.505 3.182-1.432 4.143-1.202 1.172-3.021 1.828-5.444 1.828-2.155 0-4.86-.066-6.237-.147v-20.2zm5.851 3.254c-.613 0-1.371.011-2.123.038v4.77h2.126c.843 0 1.52-.233 1.982-.682.441-.422.671-1.02.671-1.729 0-1.525-.834-2.388-2.383-2.397h-.273zm.077 13.668h.16c1.932 0 3.115-1.018 3.13-3.067-.02-.735-.304-1.413-.814-1.904-.558-.555-1.348-.845-2.275-.845h-2.401v5.794c.677.015 1.424.017 2.2.022z" fill="#ee2a23"/></g><defs><clipPath id="clip0_2_1181"><path fill="#fff" d="M0 0h178v62H0z"/></clipPath></defs></svg>
